packages/gestalt/src/icons/pause.svg

<svg width="24" height="24" xmlns="http://www.w3.org/2000/svg"><path fill="#aeaeae" d="M7 0c1.65 0 3 1.35 3 3v18c0 1.65-1.35 3-3 3s-3-1.35-3-3V3c0-1.65 1.35-3 3-3zm10 0c1.65 0 3 1.35 3 3v18c0 1.65-1.35 3-3 3s-3-1.35-3-3V3c0-1.65 1.35-3 3-3z"/></svg>

<svg width="24" height="24" viewBox="0 0 24 24" xmlns="http://www.w3.org/2000/svg"><path fill="#aeaeae" d="M7.00,0.00 C8.65,0.00 10.00,1.35 10.00,3.00 L10.00,21.00 C10.00,22.65 8.65,24.00 7.00,24.00 C5.35,24.00 4.00,22.65 4.00,21.00 L4.00,3.00 C4.00,1.35 5.35,0.00 7.00,0.00 Z M17.00,0.00 C18.65,0.00 20.00,1.35 20.00,3.00 L20.00,21.00 C20.00,22.65 18.65,24.00 17.00,24.00 C15.35,24.00 14.00,22.65 14.00,21.00 L14.00,3.00 C14.00,1.35 15.35,0.00 17.00,0.00 Z"/></svg>
